X: 833
T: The Straw Seat
B:O'Neill's 833
Z:Transcribed by Dan G. Petersen, dangp@post6.tele.dk
M:6/8
L:1/8
K:D
(3(A/B/c/)|d2d ded|{d}cBA ABc|d2d de=f|ecA A2(B/c/)|
d2d ded|{d}cBA ABc|d(B/c/d) =cBA|GED D2:|
(A/G/)|FDF ABA|FDF ABA|ECE GAG|ECE GAG|
FDF ABA|FDF ABc|d(B/c/d) =cBA|GED D2:|


